!!!!SEGMENT: pl-wn--sd-xvi-qu-273--011_gomolka-mikolaj--panu-ja-ufam-a-wy-mowicie-miedzy-gory.krn
!!!cenid: 15xx:216
!!!COM: Gomółka, Mikołaj
!!!COM-rismid: pe30013343
!!!CDT: ~1535->1591/04/30
!!!CNT: Polish
!!!ONB: Ps. XI. In Domino confido: quomodo dicitis animę meę, transmigra in montem ficut passer.
!!!GTL: Melodiae na psalterz polski
!!!OTL: XI. Panu ja ufam, a wy mówicie: miedzy góry
!!!PDT: 1580
!!!AGN: Sacred
!!!SMS-siglum: PL-Wn
!!!SMS-shelfmark: SD XVI.Qu.273
!!!SMS-shelfwork: 011 G
!!!NIFC-rismid:
!!!ONB-nifc: Melodiae na psalterz polski
**kern	**text	**kern	**text	**kern	**text	**kern	**text
*part4	*part4	*part3	*part3	*part2	*part2	*part1	*part1
*staff4	*staff4	*staff3	*staff3	*staff2	*staff2	*staff1	*staff1
*clefF4	*	*clefC3	*	*clefC2	*	*clefC1	*
*k[b-]	*	*k[b-]	*	*k[b-]	*	*k[b-]	*
*F:	*	*F:	*	*F:	*	*F:	*
*M4/2	*	*M4/2	*	*M4/2	*	*M4/2	*
*met(C|)	*	*met(C|)	*	*met(C|)	*	*met(C|)	*
*I"BASSUS.	*	*I"TENOR.	*	*I"ALTUS.	*	*I"CANTUS.	*
*xywh-13r:3350,5250,2368,1286	*	*xywh-13r:3265,4007,2518,1264	*	*xywh-13r:3168,2764,2550,1179	*	*xywh-13r:3340,1092,2358,1597	*
=1-	=1-	=1-	=1-	=1-	=1-	=1-	=1-
1F\	Pá-	1F/	PA-	1A/	Pá-	1c/	Pá-
2D/	-nu	2A/	-nu	2d/	-nu	2f/	-nu
2G\	ia	2B-/	ia	2e/	ia	2g/	ia
=2-	=2-	=2-	=2-	=2-	=2-	=2-	=2-
2F\	u-	2c/	u-	2f\	u-	2a\	u-
2D/	-fam,	2d\	-fam,	2f\	-fam,	2b-\	-fam,
2C/	á	2e\	á	2g\	á	2cc\	á
2F\	wy	2f\	wy	2a\	wy	2cc\	wy
=3-	=3-	=3-	=3-	=3-	=3-	=3-	=3-
2F\	mó-	2f\	mó-	2a\	mó-	2cc\	mó-
2G\	-wi-	2d\	-wi-	4g\	-wi-	2b-\	-wi-
.	.	.	.	4f\	.	.	.
!!LO:PB:g=original
*xywh-13v:1147,5269,5129,1290	*	*xywh-13v:1136,4022,5129,1258	*	*xywh-13v:1093,2731,5205,1301	*	*xywh-13v:1147,1094,5075,1670	*
2A\	-ćie,	2c/	-ćie,	2e/	-ćie,	2a\	-ćie,
1D\	mie-	1f\	mie-	1a\	mie-	1dd\	mie-
=4-	=4-	=4-	=4-	=4-	=4-	=4-	=4-
.	.	.	.	.	.	.	.
2E\	-d(zy)	2e\	-(dzy)	2g\	-dzy	1cc\	-dzy
2F\	.	1d\	gó-	2f\	gó-	.	.
2G\	gó-	.	.	4e\	.	2b-\	gó-
.	.	.	.	4d/	.	.	.
=5-	=5-	=5-	=5-	=5-	=5-	=5-	=5-
2C/	-ry	2c/	-(ry)	2e/	-ry	2cc\	-(ry)
4r	.	4r	.	4r	.	4r	.
4C/	U-	4c/	U-	4e/	U-	4g/	U-
4F\	-ćie-	4c/	-ćie-	4f\	-ćie-	4a\	-ćie-
4D\	-kay	4d\	-(kay)	4a\	-k(ay)	4f/	-kay
4E\	co	4c/	co	4g\	co	4g/	co
4F\	na-	4c/	na-	2f\	na-	4a\	na-
=6-	=6-	=6-	=6-	=6-	=6-	=6-	=6-
2G\	-dá-	2B-/	-dá-	.	.	2b-\	-dá-
.	.	.	.	4e/	-dá-	.	.
2F\	-(lej)	2c/	-(lej)	2f\	-(lej)	2a\	-(lej)
2r	.	2r	.	2r	.	2r	.
2C/	iá-	2c/	iá-	2e/	iá-	2g/	iá-
=7-	=7-	=7-	=7-	=7-	=7-	=7-	=7-
2C/	-ko	2e\	-ko	2c/	-ko	2g/	-ko
2FF/	pt(ak)	4f\	ptak	2c/	pt(ak)	2a\	ptak
.	.	4e\	.	.	.	.	.
2BB-/	pręd-	4d\	.	2d/	pręd-	4.b-\	pręd-
.	.	4c\	pręd-	.	.	.	.
.	.	.	.	.	.	8a\	.
2BB-/	-ko-	4B-/	.	2d/	-ko-	4g\	-ko-
.	.	4A/	-ko-	.	.	4f/	.
=8-	=8-	=8-	=8-	=8-	=8-	=8-	=8-
1C/	-pió-	4G/	-pió-	2.c/	-pió-	4e/	-pió-
.	.	4F/	.	.	.	2f/	.
.	.	2G/	-ry.	.	.	.	.
.	.	.	.	4B-/	.	4e/	.
1FF/	-(ry).	1F/	.	1A/	-ry.	1f/	-ry.
=9-	=9-	=9-	=9-	=9-	=9-	=9-	=9-
2r	.	2r	.	2r	.	2r	.
2BB-/	Tw(óy)	2.F/	Tw(óy)	2d/	Tw(óy)	2f/	Twóy
2AA/	nie-	.	.	2c/	nie-	2f/	nie-
.	.	4G/	.	.	.	.	.
2FF/	-przi-	2A/	nie-	1f\	-przi-	2f/	-przi-
=10-	=10-	=10-	=10-	=10-	=10-	=10-	=10-
2C/	-ja-	2G/	-przi-	.	.	2.g/	-ja-
2C/	-ćiél	2G/	-ja-	2e/	-ja-	.	.
.	.	.	.	.	.	4a\	.
!!LO:PB:g=original
*xywh-14r:654,5293,5069,1275	*	*xywh-14r:643,4039,5101,1307	*	*xywh-14r:643,2807,5048,1232	*	*xywh-14r:622,1177,5069,1629	*
4GG/	łuk	1G/	-ćiél	2.d/	-ćiél	1b-\	-ćiél
4AA/	.	.	.	.	.	.	.
4BB-/	.	.	.	.	.	.	.
4C/	.	.	.	4e/	łuk	.	.
=11-	=11-	=11-	=11-	=11-	=11-	=11-	=11-
4D/	.	4F/	łuk	2f\	.	1a\	łuk
4E\	wźi(ął,)	4G/	.	.	.	.	.
2F\	.	4A/	.	2f\	wź(iął,)	.	.
.	.	4B-/	wźiął,	.	.	.	.
2C/	strz(á-	2c/	.	2e/	strzá-	2g/	wź(iął,)
2c\	-łę)	2e\	strz(a-	2c/	.	2g/	.
=12-	=12-	=12-	=12-	=12-	=12-	=12-	=12-
2B-\	.	2f\	-łę)	2d/	-łę	2b-\	strza-
2B-\	ma	2d\	ma	2B-/	ma	4f/	-łę
.	.	.	.	.	.	4g/	ma
2.A\	ná	2f\	ná	2c/	ná	4a\	ná
.	.	.	.	.	.	4b-\	ćię-
.	.	2e\	ćię-	2c/	.	1cc\	-ći-
4G\	ćię-	.	.	.	.	.	.
=13-	=13-	=13-	=13-	=13-	=13-	=13-	=13-
2F\	-ći-	1d\	-ći-	2a\	ćię-	.	.
2G\	-wie,	.	.	4g\	-ći-	2b-\	-wie,
.	.	.	.	4f\	-wie,	.	.
2C/	.	2c/	-(wie,)	2e/	.	2cc\	.
2F\	Myś-	2c/	Myś-	2f\	Myś-	2a\	Myś-
=14-	=14-	=14-	=14-	=14-	=14-	=14-	=14-
2F\	-(ląc)	2c/	-(ląc)	2f\	-ląc	2f/	-(ląc)
2D/	iá-	2d\	iá-	2f\	.	2f/	iá-
2B-\	-ko-	2d\	-ko-	4d/	iá-	2g/	-ko-
.	.	.	.	4e/	-ko-	.	.
2A\	-by	1c\	-by	1f\	-by	2a\	-by
=15-	=15-	=15-	=15-	=15-	=15-	=15-	=15-
1G\	z ćié-	.	.	.	.	1b-\	z ćié-
.	.	2B-/	z ćié-	2e/	z ćié-	.	.
2F\	-(nia)	2c/	-(nia)	2f\	-(nia)	2a\	-(nia)
2C/	dob-	2c/	dob-	2e/	dob-	2g/	dob-
=16-	=16-	=16-	=16-	=16-	=16-	=16-	=16-
2F\	-(ré)	2A/	-ré	2d/	-(ré)	2f/	-ré
2G\	str(ze-	2B-/	strze-	2d/	strze-	2d/	strze-
2C/	-lał)	2G/	-(lał)	2c/	-(lał)	2e/	-(lał)
2C/	zdrá-	2G/	zdrá-	2c/	zdrá-	2e/	zdrá-
=17-	=17-	=17-	=17-	=17-	=17-	=17-	=17-
!!LO:PB:g=original
*xywh-14v:1147,5486,5118,1203	*	*xywh-14v:1136,4130,5118,1323	*	*xywh-14v:1104,2851,5129,1323	*	*xywh-14v:1169,1191,5097,1648	*
1BB-/	-dli-	2.B-/	-dli-	1d/	-dli-	1f/	-dli-
.	.	4A/	-wie.	.	.	.	.
1C/	-wie.	1G/	.	1c/	-wie.	1e/	-wie.
=18-!|:	=18-	=18-!|:	=18-	=18-!|:	=18-	=18-!|:	=18-
*	*^	*	*^	*	*^	*	*^
1C/	Prá-	Czło-	1E/	Prá-	Czło-	1G/	Prá-	Czło-	1c/	Prá-	Czło-
2FF/	.	-(wiek)	2F/	-wá	-w(iek)	2A/	-wá	-w(iek)	2c/	-wá	-(wiek)
2FF/	-wá	do-	2F/	zgo-	do-	2A/	zgo-	.	2c/	zgo-	do-
=19-	=19-	=19-	=19-	=19-	=19-	=19-	=19-	=19-	=19-	=19-	=19-
2.BB-/	zgo-	-bry	2F/	-łá	-b(ry)	1B-/	-(łá)	pró-	2.d/	.	-bry
.	.	.	1F/	u-	pró-	.	.	.	.	.	.
4AA/	-łá	.	.	.	.	.	.	.	4c/	-łá	pró-
2GG/	u-	tru-	.	.	.	2B-/	u-	-z(no)	2B-/	u-	-(zno)
2GG/	-pá-	-dno	2E/	-pá-	-zno	4A/	-pá-	ma	2B-/	-pá-	ma
.	.	.	.	.	.	4G/	-dły,	u-	.	.	.
=20-	=20-	=20-	=20-	=20-	=20-	=20-	=20-	=20-	=20-	=20-	=20-
2FF/	-dły,	ma	2F/	-dły,	ma	2A/	nié-	-fać	2c/	-dły,	u-
2C/	nié-	u-	2G/	nié-	u-	2c/	.	swéy	2e/	nié-	-fáć
2D/	-m(asz)	-fáć	2F/	-mász	-fáć	2A/	-mász	.	2f/	-mász	swéy
2AA/	sprá-	swéy	2c/	.	sw(éy)	2e/	sprá-	nie-	2a\	sprá-	.
=21-	=21-	=21-	=21-	=21-	=21-	=21-	=21-	=21-	=21-	=21-	=21-
2BB-/	-wie-	nie-	2.B-/	sprá-	nie-	2d/	-wie-	.	4g/	-wie-	nie-
.	.	.	.	.	.	.	.	.	4f/	-dli-	-win-
2BB-/	-dli-	-win-	.	.	.	2d/	-dli-	-win-	1f/	-wo-	-no-
.	.	.	4A/	-wie-	-win-	.	.	.	.	.	.
1C/	-wo-	-no-	4G/	-dli-	.	2.c/	-wo-	-no-	.	.	.
.	.	.	4F/	.	-no-	.	.	.	.	.	.
.	.	.	2G/	-wo-	.	.	.	.	2e/	-śći,	-śći.
.	.	.	.	.	.	4B-/	.	.	.	.	.
=22-	=22-	=22-	=22-	=22-	=22-	=22-	=22-	=22-	=22-	=22-	=22-
0FF/	-śći,	-śći.	0F/	-śći,	-śći.	0A/	-śći,	śći.	0f/	.	.
==:|!	==	==	==:|!	==	==	==:|!	==	==	==:|!	==	==
*-	*-	*-	*-	*-	*-	*-	*-	*-	*-	*-	*-
!!!RDF**kern: l = terminal long
!!!system-decoration: s1,s2,s3,s4
!!!ENC: Marta Lawrence
!!!END: 2020-02-03
!!!URL-scan: https://polona.pl/item/melodiae-na-psalterz-polski,Nzk3MTM4ODQ/40 Scan on Polona
!!!IIIF: https://polona.pl/iiif/item/Nzk3MTM4ODQ/manifest.json
